Adwaita++/apps/scalable/eclipse-cdt.svg

<svg enable-background="new" height="128" viewBox="0 0 128 128" width="128" xmlns="http://www.w3.org/2000/svg" xmlns:xlink="http://www.w3.org/1999/xlink">
  <linearGradient id="linearGradient1644" gradientUnits="userSpaceOnUse" x1="111.513" x2="22.061" y1="281.397" y2="196.747">
    <stop offset="0" stop-color="#04034e"/>
    <stop offset="1" stop-color="#7575b9"/>
  </linearGradient>
  <g transform="matrix(.86666673 0 0 .86666673 9.533387 -142.40002)">
    <path d="m62.510302 166.62891c-38.080121.21074-68.8407965 33.44424-68.8476529 71.52494.0012 32.95139 23.2272349 59.02793 55.5265889 65.55063-28.142652-10.23573-46.8836605-34.60396-46.9245758-64.48467.0213098-35.01912 25.5688478-67.13085 60.2456398-72.5909z" opacity=".2"/>
    <path d="m69.817074 300.32885a62.307692 62.307692 0 0 0 62.307686-62.3077 62.307692 62.307692 0 0 0 -.0479-1.35104 62.307692 62.307692 0 0 1 -62.259796 61.35105 62.307692 62.307692 0 0 1 -62.2598-60.95554 62.307692 62.307692 0 0 0 -.0479.95553 62.307692 62.307692 0 0 0 62.3077 62.3077z" opacity=".2"/>
    <circle cx="69.817" cy="235.846" fill="url(#linearGradient1644)" r="62.308"/>
    <path d="m.0110776 224.21755v3.01082h7.3675807 123.7567117a62.889438 62.307696 0 0 0 -.6824-3.01082h-122.4533321zm-1.8060689 8.97837v2.99729h8.2387703 125.610541a62.889438 62.307696 0 0 0 -.0864-2.44741 62.889438 62.307696 0 0 0 -.0682-.54988h-125.3035401zm.80295032 8.94681v3.0018h7.81341158 124.8712794a62.889438 62.307696 0 0 0 .11828-.77073 62.889438 62.307696 0 0 0 .11145-2.23107h-125.4331087zm.86891486 8.9671v3.00856h8.60271402 121.4684121a62.889438 62.307696 0 0 0 .77565-3.00856h-122.9241822z" opacity=".2"/>
    <path d="m69.817058 173.43935a62.307692 62.307692 0 0 0 -62.3076911 62.30769 62.307692 62.307692 0 0 0 .04789 1.35104 62.307692 62.307692 0 0 1 62.2598061-61.35104 62.307692 62.307692 0 0 1 62.259797 60.95553 62.307692 62.307692 0 0 0 .0479-.95553 62.307692 62.307692 0 0 0 -62.307698-62.30769z" opacity=".1"/>
    <path d="m.0110776 221.90986v3.01082h7.3675807 123.7567117a62.889438 62.307696 0 0 0 -.6824-3.01082h-122.4533321zm-1.8060689 8.97837v2.99729h8.2387703 125.610541a62.889438 62.307696 0 0 0 -.0864-2.44741 62.889438 62.307696 0 0 0 -.0682-.54988h-125.3035401zm.80295032 8.94681v3.0018h7.81341158 124.8712794a62.889438 62.307696 0 0 0 .11828-.77073 62.889438 62.307696 0 0 0 .11145-2.23107h-125.4331087zm.86891486 8.9671v3.00856h8.60271402 121.4684121a62.889438 62.307696 0 0 0 .77565-3.00856h-122.9241822z" fill="#ff7800"/>
    <path d="m63.708984 2.0117188a59.999999 59.999999 0 0 0 -59.6679684 59.9882812 59.999999 59.999999 0 0 0 48.1230464 58.81055 61.857485 61.704189 0 0 1 -40.667968-57.886722 61.857485 61.704189 0 0 1 52.21289-60.9121092z" fill="#ff7800" transform="matrix(1.1538461 0 0 1.1538461 -11.000061 164.3077)"/>
    <path d="m50.581633 284.30769q-2.582968 0-4.511539-1.03022-1.928571-1.0294-3.006593-2.7783-1.078846-1.7489-1.585715-3.74258-.506868-1.99368-.506868-4.24945 0-2.09176.523352-4.06896.523351-1.97801 1.601374-3.75906 1.078846-1.78187 3.007417-2.87638 1.928571-1.09532 4.478572-1.09532 3.072526 0 5.180768 1.5033 2.108241 1.50411 2.990933 3.66098l-3.955219 1.79835q-.915659-1.40604-1.863462-2.05962-.947801-.65356-2.35302-.65356-1.798352 0-2.990935 1.22555-1.193406 1.22555-1.618681 2.8434-.42445 1.61869-.42445 3.48132 0 2.97445 1.290659 5.26318 1.291483 2.28792 3.743407 2.28792 2.385988 0 4.150548-2.94232l4.053296 1.53627q-2.549176 5.6555-8.203844 5.6555zm27.489556-9.51264h-5.557417v5.62252h-4.248626v-5.62252h-5.557417v-4.1184h5.557417v-5.62171h4.248626v5.62171h5.557417zm20.592033 0h-5.556596v5.62252h-4.249448v-5.62252h-5.556594v-4.1184h5.556594v-5.62171h4.249448v5.62171h5.556596z" fill="#ececec" fill-rule="evenodd"/>
  </g>
</svg>

<svg xmlns="http://www.w3.org/2000/svg" xmlns:xlink="http://www.w3.org/1999/xlink" style="enable-background:new" width="128" height="128" version="1.0" viewBox="0 0 128 128">
 <title id="title4162">
  Adwaita Icon Template
 </title>
 <defs>
  <linearGradient id="linearGradient950">
   <stop style="stop-color:#9a9996" id="stop946" offset="0"/>
   <stop style="stop-color:#77767b" id="stop948" offset="1"/>
  </linearGradient>
  <linearGradient id="linearGradient1001" x1="1660.857" x2="1662.99" y1="806.297" y2="812.882" gradientTransform="matrix(1.8293937,-0.81599442,0.81599442,1.8293937,-3645.9624,100.02949)" gradientUnits="userSpaceOnUse" xlink:href="#linearGradient950"/>
  <clipPath id="clipPath5154" clipPathUnits="userSpaceOnUse">
   <circle cx="128" cy="924.362" r="109.647" style="fill:url(#radialGradient5158)"/>
  </clipPath>
  <clipPath id="clipPath977" clipPathUnits="userSpaceOnUse">
   <circle cx="128" cy="924.362" r="109.647" style="fill:url(#radialGradient5158)"/>
  </clipPath>
  <clipPath id="clipPath4688" clipPathUnits="userSpaceOnUse">
   <path d="m 106.42383,889.60156 c -2.2448,-0.0524 -4.09304,1.75264 -4.09375,3.99805 v 32.64453 32.64453 c -4e-5,3.07923 3.33305,5.004 6,3.46485 l 28.26953,-16.32227 28.27148,-16.32227 c 2.66559,-1.54001 2.66559,-5.38772 0,-6.92773 l -28.27148,-16.32227 -28.26953,-16.32226 c -0.58054,-0.3353 -1.23603,-0.51932 -1.90625,-0.53516 z" style="fill:url(#radialGradient4692);stroke:#a7003f;stroke-linecap:round;stroke-linejoin:round"/>
  </clipPath>
  <clipPath id="clipPath4564" clipPathUnits="userSpaceOnUse">
   <circle style="fill:url(#radialGradient4568)" cx="128" cy="924.362" r="109.647"/>
  </clipPath>
  <clipPath id="clipPath6215" clipPathUnits="userSpaceOnUse">
   <path d="m 105.17325,806.18572 c -3.06859,0.56361 -6.11393,1.24721 -9.129005,2.04923 -3.838255,1.06506 -7.62084,2.32142 -11.333578,3.76438 -3.712189,1.44307 -7.34989,3.07087 -10.899472,4.87732 -3.549153,1.80656 -7.005749,3.78947 -10.35684,5.94129 -3.351877,2.15253 -6.593991,4.47137 -9.714191,6.94783 -3.119992,2.47544 -6.114241,5.10535 -8.971529,7.87988 -0.367219,0.38909 -0.731819,0.78065 -1.093777,1.17464 2.60205,17.85956 16.832359,40.03752 30.863064,55.74236 -4.76734,8.84435 -7.265993,18.73329 -7.272057,28.78068 0.02104,2.87431 0.246096,5.7435 0.673482,8.58593 -20.257302,-9.18513 -43.077023,-26.53494 -52.798465,-47.36396 -0.440667,1.15171 -0.863474,2.31018 -1.268271,3.47498 -1.176789,3.80495 -2.162562,7.66637 -2.953625,11.56979 -0.79154,3.90311 -1.3874065,7.84335 -1.7853678,11.80598 -0.39733,3.96334 -0.5961891,7.94407 -0.5958321,11.92728 -4.394e-4,2.81936 0.098928,5.63785 0.2979155,8.45018 0.282275,3.97319 0.763088,7.92978 1.4406374,11.85493 0.625626,3.51826 1.408798,7.00668 2.347153,10.45473 16.778133,6.68355 43.114514,5.45001 63.748015,1.14301 6.818545,11.02763 16.987182,19.58379 29.018153,24.41667 -18.071844,12.93645 -44.490188,24.02095 -67.37308,22.03245 1.384097,1.665 2.813203,3.2921 4.285735,4.8794 2.774977,2.8571 5.691103,5.5737 8.737453,8.1395 3.046107,2.5658 6.218619,4.9777 9.505651,7.2266 3.287242,2.2488 6.684891,4.3319 10.180217,6.2413 3.495379,1.9096 7.084075,3.6433 10.752641,5.1944 3.66896,1.5509 7.413193,2.9174 11.218668,4.0942 1.438565,0.3959 2.884421,0.7648 4.336807,1.1066 14.138748,-11.1844 26.206378,-34.5828 32.780368,-54.56406 12.95816,-0.38251 25.45395,-4.90132 35.65955,-12.89544 2.15922,22.12638 -1.46693,50.5581 -14.64692,69.3832 3.06859,-0.5636 6.11393,-1.2473 9.129,-2.0493 3.83826,-1.0651 7.62084,-2.3214 11.33358,-3.7644 3.71219,-1.4431 7.34989,-3.0709 10.89947,-4.8773 3.54915,-1.8066 7.00575,-3.7895 10.35684,-5.9413 3.35188,-2.1525 6.59399,-4.4714 9.71419,-6.9478 3.11999,-2.4754 6.11424,-5.1054 8.97153,-7.8799 0.36722,-0.3891 0.73182,-0.7806 1.09378,-1.1746 -2.60204,-17.85957 -16.83236,-40.03755 -30.86307,-55.74238 4.76735,-8.84435 7.266,-18.7333 7.27207,-28.78069 -0.021,-2.8743 -0.24611,-5.74349 -0.6735,-8.58592 20.25731,9.18513 43.07704,26.53494 52.79848,47.36396 0.44067,-1.15171 0.86347,-2.31018 1.26827,-3.47499 1.17679,-3.80495 2.16256,-7.66636 2.95362,-11.56978 0.79154,-3.90311 1.38741,-7.84335 1.78537,-11.80598 0.39733,-3.96334 0.59619,-7.94408 0.59583,-11.92729 4.4e-4,-2.81936 -0.0989,-5.63784 -0.29791,-8.45017 -0.28228,-3.97319 -0.76309,-7.92978 -1.44064,-11.85493 -0.62776,-3.53416 -1.41449,-7.03823 -2.35779,-10.50154 -20.56165,-7.32804 -45.89823,-4.79548 -63.74906,-1.11372 -6.81835,-11.01918 -16.98234,-19.56874 -29.00647,-24.39915 18.07184,-12.93645 44.49019,-24.02091 67.37307,-22.03241 -1.38409,-1.66502 -2.8132,-3.2921 -4.28573,-4.87944 -2.77498,-2.85712 -5.6911,-5.57368 -8.73745,-8.13949 -3.04611,-2.56581 -6.21862,-4.97769 -9.50565,-7.22659 -3.28724,-2.24885 -6.68489,-4.3319 -10.18022,-6.24135 -3.49538,-1.90963 -7.08407,-3.64325 -10.75264,-5.19438 -3.66896,-1.55092 -7.41319,-2.91736 -11.21867,-4.09421 -1.42662,-0.39262 -2.86041,-0.75869 -4.30063,-1.09804 -14.14688,11.18369 -26.2293,34.57475 -32.8107,54.55552 -12.96018,0.38127 -25.4582,4.90015 -35.665394,12.89544 -2.15922,-22.12637 1.466931,-50.55807 14.646924,-69.38315 z" style="fill:url(#radialGradient6219)"/>
  </clipPath>
  <linearGradient id="linearGradient2225">
   <stop style="stop-color:#ffffff;stop-opacity:0.63529414" id="stop2227" offset="0"/>
   <stop id="stop2235" offset=".5" style="stop-color:#ffffff;stop-opacity:0.20792079"/>
   <stop style="stop-color:#424289;stop-opacity:0.07450981" id="stop2229" offset="1"/>
  </linearGradient>
  <linearGradient id="linearGradient3365">
   <stop id="stop3367" offset="0" style="stop-color:#c98cbb"/>
   <stop id="stop3369" offset="1" style="stop-color:#a9b7da"/>
  </linearGradient>
  <linearGradient id="linearGradient3261">
   <stop id="stop3263" offset="0" style="stop-color:#04034e"/>
   <stop id="stop3265" offset="1" style="stop-color:#c98cbb"/>
  </linearGradient>
  <linearGradient id="linearGradient3249">
   <stop style="stop-color:#04034e" id="stop3251" offset="0"/>
   <stop style="stop-color:#7575b9" id="stop3253" offset="1"/>
  </linearGradient>
  <linearGradient id="linearGradient1622" x1="50.381" x2="95.397" y1="47.093" y2="46.776" gradientTransform="matrix(2.5914104,0,0,2.5923476,-121.89682,-57.106919)" gradientUnits="userSpaceOnUse" xlink:href="#linearGradient3365"/>
  <linearGradient id="linearGradient1644" x1="111.513" x2="22.061" y1="281.397" y2="196.747" gradientUnits="userSpaceOnUse" xlink:href="#linearGradient3249"/>
 </defs>
 <g id="layer1" transform="matrix(0.86666673,0,0,0.86666673,9.5333867,-142.40002)">
  <g id="layer9">
   <path d="m 62.510302,166.62891 c -38.080121,0.21074 -68.8407965,33.44424 -68.8476529,71.52494 0.0012,32.95139 23.2272349,59.02793 55.5265889,65.55063 C 21.046586,293.46875 2.3055775,269.10052 2.2646622,239.21981 2.285972,204.20069 27.83351,172.08896 62.510302,166.62891 Z" style="opacity:0.2"/>
   <path style="opacity:0.2" d="m 69.817074,300.32885 a 62.307692,62.307692 0 0 0 62.307686,-62.3077 62.307692,62.307692 0 0 0 -0.0479,-1.35104 62.307692,62.307692 0 0 1 -62.259796,61.35105 62.307692,62.307692 0 0 1 -62.2598,-60.95554 62.307692,62.307692 0 0 0 -0.0479,0.95553 62.307692,62.307692 0 0 0 62.3077,62.3077 z"/>
   <circle style="fill:url(#linearGradient1644)" cx="69.817" cy="235.846" r="62.308"/>
   <path d="m 0.0110776,224.21755 v 3.01082 H 7.3786583 131.13537 a 62.889438,62.307696 0 0 0 -0.6824,-3.01082 H 7.9996379 Z m -1.8060689,8.97837 v 2.99729 H 6.443779 132.05432 a 62.889438,62.307696 0 0 0 -0.0864,-2.44741 62.889438,62.307696 0 0 0 -0.0682,-0.54988 H 6.5961799 Z m 0.80295032,8.94681 v 3.0018 H 6.8213706 131.69265 a 62.889438,62.307696 0 0 0 0.11828,-0.77073 62.889438,62.307696 0 0 0 0.11145,-2.23107 H 6.4892713 Z m 0.86891486,8.9671 v 3.00856 H 8.4795879 129.948 a 62.889438,62.307696 0 0 0 0.77565,-3.00856 H 7.7994678 Z" style="opacity:0.2"/>
   <path d="m 69.817058,173.43935 a 62.307692,62.307692 0 0 0 -62.3076911,62.30769 62.307692,62.307692 0 0 0 0.04789,1.35104 62.307692,62.307692 0 0 1 62.2598061,-61.35104 62.307692,62.307692 0 0 1 62.259797,60.95553 62.307692,62.307692 0 0 0 0.0479,-0.95553 62.307692,62.307692 0 0 0 -62.307698,-62.30769 z" style="opacity:0.1"/>
   <path style="fill:#ff7800" d="m 0.0110776,221.90986 v 3.01082 H 7.3786583 131.13537 a 62.889438,62.307696 0 0 0 -0.6824,-3.01082 H 7.9996379 Z m -1.8060689,8.97837 v 2.99729 H 6.443779 132.05432 a 62.889438,62.307696 0 0 0 -0.0864,-2.44741 62.889438,62.307696 0 0 0 -0.0682,-0.54988 H 6.5961799 Z m 0.80295032,8.94681 v 3.0018 H 6.8213706 131.69265 a 62.889438,62.307696 0 0 0 0.11828,-0.77073 62.889438,62.307696 0 0 0 0.11145,-2.23107 H 6.4892713 Z m 0.86891486,8.9671 v 3.00856 H 8.4795879 129.948 a 62.889438,62.307696 0 0 0 0.77565,-3.00856 H 7.7994678 Z"/>
   <path style="fill:#ff7800" d="M 63.708984 2.0117188 A 59.999999 59.999999 0 0 0 4.0410156 62 A 59.999999 59.999999 0 0 0 52.164062 120.81055 A 61.857485 61.704189 0 0 1 11.496094 62.923828 A 61.857485 61.704189 0 0 1 63.708984 2.0117188 z" transform="matrix(1.1538461,0,0,1.1538461,-11.000061,164.3077)"/>
   <path style="isolation:isolate;fill:#ececec;fill-rule:evenodd" d="m 50.581633,284.30769 v 0 0 q -2.582968,0 -4.511539,-1.03022 v 0 0 q -1.928571,-1.0294 -3.006593,-2.7783 v 0 0 q -1.078846,-1.7489 -1.585715,-3.74258 v 0 0 q -0.506868,-1.99368 -0.506868,-4.24945 v 0 0 q 0,-2.09176 0.523352,-4.06896 v 0 0 q 0.523351,-1.97801 1.601374,-3.75906 v 0 0 q 1.078846,-1.78187 3.007417,-2.87638 v 0 0 q 1.928571,-1.09532 4.478572,-1.09532 v 0 0 q 3.072526,0 5.180768,1.5033 v 0 0 q 2.108241,1.50411 2.990933,3.66098 v 0 l -3.955219,1.79835 v 0 q -0.915659,-1.40604 -1.863462,-2.05962 v 0 0 q -0.947801,-0.65356 -2.35302,-0.65356 v 0 0 q -1.798352,0 -2.990935,1.22555 v 0 0 q -1.193406,1.22555 -1.618681,2.8434 v 0 0 q -0.42445,1.61869 -0.42445,3.48132 v 0 0 q 0,2.97445 1.290659,5.26318 v 0 0 q 1.291483,2.28792 3.743407,2.28792 v 0 0 q 2.385988,0 4.150548,-2.94232 v 0 l 4.053296,1.53627 v 0 q -2.549176,5.6555 -8.203844,5.6555 z m 27.489556,-9.51264 h -5.557417 v 5.62252 h -4.248626 v -5.62252 h -5.557417 v -4.1184 h 5.557417 v -5.62171 h 4.248626 v 5.62171 h 5.557417 z m 20.592033,0 h -5.556596 v 5.62252 h -4.249448 v -5.62252 h -5.556594 v -4.1184 h 5.556594 v -5.62171 h 4.249448 v 5.62171 h 5.556596 z"/>
  </g>
 </g>
</svg>
